icon-svg/chicken-coup-door-shut.svg

<svg xmlns="http://www.w3.org/2000/svg" viewBox="0 0 24 24"><path fill="#44739e" d="M13.239 9.512V8.83a1.307 1.307 0 1 1 2.614-.062v.741h.009a3.3 3.3 0 0 1 .532.288V8.83a1.85 1.85 0 1 0-3.7-.074V9.8a3 3 0 0 1 .532-.289Zm1.387.278a2.885 2.885 0 0 0-2.92 2.848v.04a2.86 2.86 0 0 0 2.835 2.888 2.888 2.888 0 0 0 .08-5.776Zm.191 3.035v.982h-.54v-.982a.64.64 0 0 1-.36-.578.635.635 0 0 1 .629-.641.643.643 0 0 1 .271 1.219m-3.084 1.784v.161Zm.019-.769-.015.768.338-.077.1.135-.441.1-.028 1.427 1.21 1.732.269.076h.132l1.137-.412-.039-.168Zm.111 2.036 1-.244.105.129-1.014.244Zm.981 1.457-.132-.153 1.1-.328.138.168Zm-3.5-4.219 1.406 1.811.049-2.169-1.44.144Zm1.439.351v.165l-.472.094-.138-.16ZM9.52 13.5l-.188-.184-1.7.184v.2Zm1.415-6.26v-.526l-1.6-.438-1.505.117v.477Zm-.043.739.012-.593-3.09-.361v.577Zm.012.1-3.09-.328-.033.6L10.9 8.7Zm-.021.706-3.1-.294v.687l3.1.213ZM9.117 12l-1.381.056v.61l1.381-.1Zm.039-.745-1.42.038v.66l1.42-.05Zm-1.42-.679h1.38v.6h-1.38Zm1.446-.738-1.446-.019v.612h1.42Zm1.657 2.683.1-2.721v-.317l-3.2-.233v.459l1.5.042-.05 2.873-1.5.1v.264l3.137-.3ZM9.375 9.933l1.419.055-.081 2.539-1.376.088Zm-4.737 1.71 1.151.122.014-.707-1.165-.094Zm0-.784 1.165.1.011-.617-1.172-.051Zm-.011-3.4H4.5l-.1 4.56 1.7.19V11.9l.073-4.531Zm1.3 2.416-.568-.024.017-.942h.565ZM4.6 9.821l.014-.91h.563l-.013.934Zm1.34-1.16-.563.018.017-.934.559-.032Zm-.757-.9-.012.928-.563.011.014-.914Zm-.622 4 .025-1.6 1.333.058-.019 1.663Zm2.018-4.417-.059 4.94.268.031.1-4.991Zm-2.524 4.677L4.114 7.5l-.189.009L3.847 12Zm-.111.869.648.072.008-.291-.65-.071Zm1.681.231.648.072.008-.291-.649-.076Zm1.217-6.545v-.564L4 6.352v.515Zm.8-.625-.007.314 3.439-.314-.291 11.865L7.421 16.8Zl-.251.029-.234 11.154 4 1.206v-.412l.25-12.42Zm10.743-1.419-.618 16.478v.152l2.8-1.855v.009l.276-.213.592-13.015-3.05-2.212Zm2.2 14.3-2.452 1.584.567-15.678 2.4 1.579ZM3.7 5.951v.32l-.038 2.472L2 9.4v.325l.039.028H2.2l1.458-.563v.076l-.475.167h.472v.1H3l-.706.249v.237l1.353.046v.1L2.3 10.126v.549l1.342.06v.129L2.3 10.782v.539l1.331.114v.1l-1.33-.1V12l1.32.144v.1L2.3 12.081v.6l1.289.189.02.007-.066 3.586 13.619 4.547.487.152.617-17.286Zm3.152 7.5-3.1-.437.01-.577 3.1.412Zm-3-6.034.339-.026-.08 4.733.183.02-.52-.057Zm.469 4.73.119-4.775 1.813-.141-.076 5.122Zm2.558.284-.441-.049.052-5.169.51-.039Zm.142-6.588L7 6.758l-3.147.329.014-.838Zm-3.27 7.375 3.1.459-.079 3.507.19.06L3.7 16.219ZM17.18 20.46 7.037 17.269 7.276 5.81l4.478-.578-.181.023-.295 13.345.255.08.33-13.465 5.851-.755Zm1.428-17.622L2.872 5.4v.49l15.605-2.258 3.392 2.456.131-.061v-.473Z"/></svg>

<?xml version="1.0" encoding="UTF-8"?>
<svg width="24px" fill="#44739e" height="24px" viewBox="0 0 24 24" version="1.1" xmlns="http://www.w3.org/2000/svg" xmlns:xlink="http://www.w3.org/1999/xlink">
            <path d="M 13.239,9.512 V 8.83 a 1.3073676,1.3073676 0 1 1 2.614,-0.062 c 0,0.021 0,0.041 0,0.062 v 0.679 h 0.009 a 3.252,3.252 0 0 1 0.532,0.288 V 8.83 a 1.85037,1.85037 0 1 0 -3.7,-0.074 V 9.8 a 3.183,3.183 0 0 1 0.532,-0.289 z m 1.387,0.278 a 2.885,2.885 0 0 0 -2.92,2.848 v 0.04 a 2.862,2.862 0 0 0 2.835,2.888 v 0 a 2.888277,2.888277 0 0 0 0.08,-5.776 z m 0.191,3.035 v 0.982 h -0.54 v -0.982 a 0.642,0.642 0 0 1 -0.36,-0.578 0.635,0.635 0 0 1 0.629,-0.641 v 0 a 0.643,0.643 0 0 1 0.271,1.219 z m -3.084,1.784 v 0 0.161 0 z m 0.019,-0.769 -0.015,0.768 0.338,-0.077 0.1,0.135 -0.441,0.1 -0.028,1.427 1.21,1.732 0.269,0.076 h 0.132 l 1.137,-0.412 -0.039,-0.168 z m 0.111,2.036 1,-0.244 0.105,0.129 -1.014,0.244 z m 0.981,1.457 -0.132,-0.153 1.1,-0.328 0.138,0.168 z m -3.5,-4.219 1.406,1.811 0.049,-2.169 -1.44,0.144 z m 1.439,0.351 v 0.165 l -0.472,0.094 -0.138,-0.16 z M 9.52,13.5 9.332,13.316 7.632,13.5 v 0.2 z M 10.935,7.24 V 6.714 L 9.335,6.276 7.83,6.393 V 6.87 Z M 10.892,7.979 10.904,7.386 7.814,7.025 v 0.577 z m 0.012,0.1 L 7.814,7.751 7.781,8.351 10.9,8.7 Z m -0.021,0.706 -3.1,-0.294 v 0.687 l 3.1,0.213 z M 9.117,12 7.736,12.056 v 0.61 l 1.381,-0.1 z m 0.039,-0.745 -1.42,0.038 v 0.66 l 1.42,-0.05 z m -1.42,-0.679 h 1.38 v 0.6 H 7.736 Z M 9.182,9.838 7.736,9.819 v 0.612 h 1.42 z m 1.657,2.683 0.1,-2.721 V 9.483 L 7.739,9.25 v 0.459 l 1.5,0.042 -0.05,2.873 -1.5,0.1 v 0.264 l 3.137,-0.3 z m -1.464,-2.588 1.419,0.055 -0.081,2.539 -1.376,0.088 z m -4.737,1.71 1.151,0.122 0.014,-0.707 -1.165,-0.094 z m 0,-0.784 1.165,0.1 0.011,-0.617 -1.172,-0.051 z M 4.627,7.459 H 4.5 l -0.1,4.56 1.7,0.19 V 11.9 L 6.173,7.369 Z M 5.927,9.875 5.359,9.851 5.376,8.909 H 5.941 Z M 4.6,9.821 4.614,8.911 H 5.177 L 5.164,9.845 Z M 5.94,8.661 5.377,8.679 5.394,7.745 5.953,7.713 Z M 5.183,7.761 5.171,8.689 4.608,8.7 4.622,7.786 Z m -0.622,4 0.025,-1.6 1.333,0.058 -0.019,1.663 z m 2.018,-4.417 -0.059,4.94 0.268,0.031 0.1,-4.991 z M 4.055,12.021 4.114,7.5 3.925,7.509 3.847,12 Z M 3.944,12.89 4.592,12.962 4.6,12.671 3.95,12.6 Z m 1.681,0.231 0.648,0.072 0.008,-0.291 -0.649,-0.076 z M 6.842,6.576 V 6.012 L 4,6.352 V 6.867 Z M 7.642,5.951 7.635,6.265 11.074,5.951 10.783,17.816 7.421,16.8 7.643,5.951 7.392,5.98 7.158,17.134 l 4,1.206 v -0.412 l 0.25,-12.42 z M 18.385,4.532 17.767,21.01 v 0.152 l 2.8,-1.855 v 0.009 l 0.276,-0.213 0.592,-13.015 -3.05,-2.212 z m 2.2,14.3 -2.452,1.584 L 18.7,4.738 21.1,6.317 Z M 3.7,5.951 v 0.32 L 3.662,8.743 2,9.4 V 9.725 L 2.039,9.753 H 2.2 L 3.658,9.19 V 9.266 L 3.183,9.433 h 0.472 v 0.1 H 3 L 2.294,9.782 v 0.237 l 1.353,0.046 v 0.1 L 2.3,10.126 v 0.549 l 1.342,0.06 v 0.129 L 2.3,10.782 v 0.539 l 1.331,0.114 v 0.1 l -1.33,-0.1 V 12 l 1.32,0.144 v 0.1 L 2.3,12.081 v 0.6 l 1.289,0.189 0.02,0.007 -0.066,3.586 13.619,4.547 0.487,0.152 0.617,-17.286 z m 3.152,7.5 -3.1,-0.437 0.01,-0.577 3.1,0.412 v 0 z m -3,-6.034 0.339,-0.026 -0.08,4.733 0.183,0.02 -0.52,-0.057 z M 4.321,12.147 4.44,7.372 6.253,7.231 6.177,12.353 Z M 6.879,12.431 6.438,12.382 6.49,7.213 7,7.174 Z M 7.021,5.843 7,6.758 3.853,7.087 3.867,6.249 Z m -3.27,7.375 3.1,0.459 -0.079,3.507 0.19,0.06 L 3.7,16.219 Z M 17.18,20.46 7.037,17.269 7.276,5.81 v 0 L 11.754,5.232 11.573,5.255 11.278,18.6 11.533,18.68 11.863,5.215 17.714,4.46 Z M 18.608,2.838 2.872,5.4 V 5.89 L 18.477,3.632 21.869,6.088 22,6.027 V 5.554 Z"/>

</svg>
